X:9
T:Reel 9
M:4/4
K:Dmaj
L:1/8
cB|AGFA BcAG|ADFA G2FG|ADED ADFA||GAcd efde:||2Addc d2|de|f2fd e2ec|dfed cAAc|f2fd e2ed|eaag ecdc|effd efge|fgef dcAG|A3B cdeg|fdec dcdB|
